X: 4511
T: Boogie, The
R: reel
M: 4/4
K: Cmajor
C2 EG c3 G|A_BAG AG c2|C2 EG c2 ed|cBAG AD D2|
C2EG C2 cc|dcde f2 ef|gece fdBd|cedB c2:|
dG G/G/G DG G/G/G|dcde fagf|ec ~c2 ec ~c2|ecge d2 Bc|
Addc ecdc|Bcde f2 ef|gece fdBd|cedB c2:|

